COLOR/action 16/16/align-horizontal-left-to-anchor.svg

<svg viewBox="0 0 24 24" xmlns="http://www.w3.org/2000/svg"><g transform="matrix(0 1 -1 0 24 0)"><path d="m4 16v1 3h6v-1-3h-1z" fill="#1a7fd4"/><path d="m4 13v1h16v-1z" fill="#e95420"/><g fill="#c43ac4" transform="matrix(-1 0 0 -1 24 14)"><path d="m4 3v1 6h6v-1-6h-1z"/><path d="m14 4v6h5 1v-1-4-1h-1-4z"/><path d="m4 9.5v.5h1 3v-.5h-3zm10 0v.5h6v-.5zm-4 10v.5h1v-.5zm3 0v.5h1 6v-.5h-6z" fill="#000" opacity=".2" transform="matrix(0 1 -1 0 24 -10)"/></g><path d="m4 4v.5h3 1v-.5h-1zm6 0v.5h1v-.5zm4 0v.5h1 4 1v-.5h-1-4zm-1 10v.5h6 1v-.5h-1z" fill="#fff" opacity=".3" transform="matrix(0 -1 1 0 0 24)"/></g></svg>

<?xml version="1.0" encoding="UTF-8" standalone="no"?>
<svg
   xmlns:dc="http://purl.org/dc/elements/1.1/"
   xmlns:cc="http://creativecommons.org/ns#"
   xmlns:rdf="http://www.w3.org/1999/02/22-rdf-syntax-ns#"
   xmlns:svg="http://www.w3.org/2000/svg"
   xmlns="http://www.w3.org/2000/svg"
   xmlns:sodipodi="http://sodipodi.sourceforge.net/DTD/sodipodi-0.dtd"
   xmlns:inkscape="http://www.inkscape.org/namespaces/inkscape"
   viewBox="0 0 24 24"
   version="1.1"
   id="svg14"
   sodipodi:docname="align-horizontal-left-to-anchor.svg"
   inkscape:version="0.92.4 (5da689c313, 2019-01-14)">
  <metadata
     id="metadata20">
    <rdf:RDF>
      <cc:Work
         rdf:about="">
        <dc:format>image/svg+xml</dc:format>
        <dc:type
           rdf:resource="http://purl.org/dc/dcmitype/StillImage" />
      </cc:Work>
    </rdf:RDF>
  </metadata>
  <defs
     id="defs18" />
  <sodipodi:namedview
     pagecolor="#ffffff"
     bordercolor="#666666"
     borderopacity="1"
     objecttolerance="10"
     gridtolerance="10"
     guidetolerance="10"
     inkscape:pageopacity="0"
     inkscape:pageshadow="2"
     inkscape:window-width="960"
     inkscape:window-height="1016"
     id="namedview16"
     showgrid="false"
     inkscape:zoom="9.8333333"
     inkscape:cx="12"
     inkscape:cy="12"
     inkscape:window-x="0"
     inkscape:window-y="27"
     inkscape:window-maximized="0"
     inkscape:current-layer="g10" />
  <g
     transform="matrix(0 1 -1 0 24 0)"
     id="g12">
    <path
       d="m4 16v1 3h6v-1-3h-1z"
       fill="#1a7fd4"
       id="path2" />
    <path
       d="m4 13v1h16v-1z"
       fill="#e95420"
       id="path4" />
    <g
       transform="matrix(-1 0 0 -1 24 14)"
       id="g10"
       fill="#c43ac4">
      <path
         d="m4 3v1 6h6v-1-6h-1z"
         id="path6" />
      <path
         d="m14 4v6h5 1v-1-4-1h-1-4z"
         id="path8" />
      <path
         d="M 4 9.5 L 4 10 L 5 10 L 8 10 L 8 9.5 L 5 9.5 L 4 9.5 z M 14 9.5 L 14 10 L 20 10 L 20 9.5 L 14 9.5 z M 10 19.5 L 10 20 L 11 20 L 11 19.5 L 10 19.5 z M 13 19.5 L 13 20 L 14 20 L 20 20 L 20 19.5 L 14 19.5 L 13 19.5 z "
         transform="rotate(90,17,7)"
         id="path831"
         style="fill:#000000;fill-opacity:1;opacity:0.2" />
    </g>
    <g
       id="g842"
       transform="matrix(-1 0 0 -1 24 14)"
       fill="#c43ac4">
      <path
         d="M 4 4 L 4 4.5 L 7 4.5 L 8 4.5 L 8 4 L 7 4 L 4 4 z M 10 4 L 10 4.5 L 11 4.5 L 11 4 L 10 4 z M 14 4 L 14 4.5 L 15 4.5 L 19 4.5 L 20 4.5 L 20 4 L 19 4 L 15 4 L 14 4 z M 13 14 L 13 14.5 L 19 14.5 L 20 14.5 L 20 14 L 19 14 L 13 14 z "
         transform="rotate(90,17,7)"
         id="path840"
         style="fill:#ffffff;fill-opacity:1;opacity:0.3" />
    </g>
  </g>
</svg>
